public/images/svg/icon-down.svg

<svg fill="none" height="6" viewBox="0 0 9 6" width="9" xmlns="http://www.w3.org/2000/svg"><path clip-rule="evenodd" d="m.234473.834563c.150023-.149977.353469-.23423.5656-.23423.212127 0 .415577.084253.565597.23423l2.6344 2.634397 2.6344-2.634397c.0738-.076408.16208-.137354.25968-.179281.0976-.041928.20258-.063997.3088-.06492.10623-.000923.21157.019318.30989.059543.09831.040225.18763.099627.26275.174741.07511.075115.13452.164436.17474.262754.04023.09832.06047.20366.05954.30988-.00092.10623-.02299.2112-.06492.30881-.04192.0976-.10287.18588-.17928.25967l-3.2 3.2c-.15002.14998-.35347.23423-.5656.23423s-.41557-.08425-.5656-.23423l-3.199997-3.2c-.1499764-.15002-.23422886-.35347-.23422886-.5656s.08425246-.415575.23422886-.565597z" fill="#737373" fill-rule="evenodd"/></svg>

<svg width="9" height="6" viewBox="0 0 9 6" fill="none" xmlns="http://www.w3.org/2000/svg">
<path fill-rule="evenodd" clip-rule="evenodd" d="M0.234473 0.834563C0.384496 0.684586 0.587942 0.600333 0.800073 0.600333C1.0122 0.600333 1.21565 0.684586 1.36567 0.834563L4.00007 3.46896L6.63447 0.834563C6.70827 0.758155 6.79655 0.697209 6.89415 0.655282C6.99175 0.613354 7.09673 0.591285 7.20295 0.590362C7.30918 0.589439 7.41452 0.60968 7.51284 0.649905C7.61115 0.69013 7.70047 0.749532 7.77559 0.824646C7.8507 0.899761 7.91011 0.989082 7.95033 1.0874C7.99056 1.18572 8.0108 1.29106 8.00987 1.39728C8.00895 1.50351 7.98688 1.60848 7.94495 1.70609C7.90303 1.80369 7.84208 1.89197 7.76567 1.96576L4.56567 5.16576C4.41565 5.31574 4.2122 5.39999 4.00007 5.39999C3.78794 5.39999 3.5845 5.31574 3.43447 5.16576L0.234473 1.96576C0.0844966 1.81574 0.000244141 1.61229 0.000244141 1.40016C0.000244141 1.18803 0.0844966 0.984585 0.234473 0.834563Z" fill="#737373"/>
</svg>
